X:3374
T:CONTREDANSES d' HILLION
Z: Yves BELOTTEAU
M:4/4
L:1/8
Q:1/4=60
K:C
|c3/2e/2gg agd2|de/2f/2gg edec|c3/2e/2gg agd2|de/2f/2gg edc2|
c3/2e/2dc Bcd2|de/2f/2gg edec|c3/2e/2dc Bcd2|de/2f/2gg ed2c|


